X: 1
T: Miko Russel's
M: 4/4
L: 1/8
R: reel
K: Emin
BEED ~G3 A|BE ~E2 Bded|BE ~E2 d2 dB|A2 AF DEFA:|
~B3A ~G3A|BG G2 (3B^cd gd|BdBA ~G2 FG|AD ~D2 ADBD|
~B3 A ~G3 A|~B3 A Bd g2|gbaf~g3 e|dedB A2 GA||
